assets/images/card/wecont.svg

<svg width="85" height="140" viewBox="0 0 85 140" fill="none" xmlns="http://www.w3.org/2000/svg">
<rect width="85" height="140" fill="#F6F6F6"/>
<path fill-rule="evenodd" clip-rule="evenodd" d="M30.5399 22.8977C30.4453 25.1664 30.3508 27.435 30.2563 29.6564C28.7911 30.7908 27.2787 31.8778 25.8135 33.0122C25.8135 35.4226 25.8135 37.8331 25.8135 40.2908C27.3259 39.8181 28.8384 39.8181 30.3508 39.8181C30.5399 45.4425 30.7289 51.0669 30.8707 56.7386C30.9652 57.4948 31.0125 58.2038 31.107 58.9127C30.5871 59.4326 30.5399 59.858 29.4528 60.5197C28.3185 61.1341 28.0349 61.0868 27.7513 62.552C27.8931 64.3008 27.8931 64.4426 29.1219 65.3879C29.9727 65.6242 30.3508 65.8132 31.2015 65.4351C31.7215 78.5745 32.1941 91.6665 32.714 104.806C32.9503 104.759 33.1394 104.664 33.3757 104.617C33.3757 104.428 33.3757 104.239 33.3757 104.05C33.3757 103.861 33.3757 103.624 33.3757 103.435C33.3757 103.057 33.3757 102.679 33.3284 102.348C32.9976 89.965 32.6667 77.5819 32.3359 65.1988C33.1394 64.6789 33.8011 64.159 34.5573 63.5446C35.219 66.0495 35.408 68.3182 35.4553 70.965C35.2662 71.8157 35.0772 72.7137 34.8881 73.5645C34.51 76.0222 34.1792 78.3854 34.1319 80.8431C34.0846 81.4103 34.0374 82.0247 34.0374 82.5919C34.2737 82.5919 34.51 82.5919 34.7463 82.5919C35.0299 84.4352 35.2662 86.2785 35.408 88.169C34.6991 91.572 35.1244 94.3606 35.5498 97.669L36.0697 102.017C36.1642 102.726 34.6045 103.53 34.6518 104.05C34.6518 104.617 35.5971 104.948 36.0697 105.089C36.6369 105.137 36.5896 105.279 37.8185 104.995C39.2364 104.664 39.2364 104.428 39.0946 103.388C39.0001 102.774 38.811 102.679 38.7638 101.828C38.7165 100.647 38.8583 98.8506 38.9055 97.7636C39.0946 95.6367 39.5672 93.6516 39.8508 91.5247C39.8981 90.4849 39.9926 89.776 39.7563 88.7834C39.8508 88.3108 39.9926 87.8854 40.0871 87.4128C40.2762 86.5148 40.418 85.6168 40.5125 84.7187C40.5598 84.2934 40.5598 83.9153 40.607 83.4899C40.8906 83.4899 41.1742 83.5372 41.4578 83.5372C41.5051 84.766 41.5996 85.7585 41.8832 86.9401C42.025 87.5546 42.1667 88.2163 42.3085 88.8307C42.2613 89.3033 42.2613 89.776 42.214 90.2486C42.1667 90.7685 42.1195 91.2412 42.1195 91.7611C42.1667 92.3755 42.3085 92.9426 42.4031 93.5098C42.5449 94.266 42.6867 95.0223 42.8284 95.7785C43.1593 97.4327 43.3956 101.592 43.3011 102.395C43.2066 102.774 42.9702 103.057 42.8757 103.482C42.8284 103.766 42.8284 103.955 42.8757 104.191C42.9702 104.57 43.3956 104.759 43.9628 104.806C45.0971 104.948 44.7663 104.948 45.9479 104.9C46.2787 104.9 46.7513 104.806 47.0349 104.522C47.224 104.333 47.5076 103.861 47.3658 103.624C46.9877 103.01 46.326 102.679 45.8061 102.254C45.8061 102.254 45.8061 101.639 45.8533 101.545C45.9479 101.119 46.5623 97.7636 46.6095 97.1964C46.9404 96.0148 46.9877 94.7859 47.1294 93.6043C47.224 91.9028 47.1294 90.863 46.6568 89.3506C46.7513 87.2237 46.7986 85.1914 47.0349 83.159L48.0747 87.0819L48.7837 88.4998L49.4926 89.8232L49.6344 88.5471L49.729 87.1292L48.2165 79.0944C48.6892 79.3307 49.1145 79.5197 49.5872 79.756C51.6668 77.1565 53.2737 74.6043 53.5573 71.0122C53.7464 67.2311 53.6046 63.4028 53.1792 59.6689C53.1319 59.0545 53.0847 58.4873 53.0374 57.8729L50.0598 58.3928C49.6344 57.0694 49.1618 56.1241 47.413 55.1789C46.2787 54.5644 45.2389 54.2336 43.9155 53.8555C43.8682 54.4699 44.3881 51.0669 44.3881 49.6017C44.1046 48.4202 43.6792 47.3331 43.112 46.1988C41.5996 46.057 40.1344 45.9624 38.5747 46.1988C38.1493 47.3803 37.6767 48.4202 37.2986 49.6963C37.4404 51.2087 37.7712 52.5794 37.9603 54.0445C37.1095 54.3754 36.117 54.5172 35.3135 54.9426C34.0374 55.5097 33.1866 56.3132 32.0996 57.2585C31.8632 51.445 31.5797 45.6789 31.3433 39.8654C33.4229 40.2435 35.408 40.7162 37.4876 41.2833C39.4727 41.945 41.4578 42.654 43.3956 43.4575C46.5623 44.3555 49.2091 44.9226 52.423 44.7808C56.5822 44.1664 53.3683 44.1664 54.7389 41.2833C55.8732 40.4798 57.1966 40.1017 58.52 39.0147C56.4877 38.1166 55.4951 37.7385 56.9603 35.2336C57.4802 34.2883 58.0001 33.343 58.52 32.445C57.433 33.0122 56.3459 33.6266 55.2588 34.1938C54.1245 34.7137 53.4628 34.9972 52.2812 35.0445C49.918 35.2336 50.1543 34.9972 50.3906 37.6913C47.9802 37.644 46.1369 37.0768 43.821 36.3679C41.5051 35.4699 39.1419 34.6191 36.8259 33.7211C34.8881 33.1539 33.1866 32.7286 31.1543 32.7286C31.0125 29.9873 31.107 27.1514 30.7289 24.4574C30.6816 23.9375 30.6344 23.4176 30.5399 22.8977Z" fill="#313131"/>
<path fill-rule="evenodd" clip-rule="evenodd" d="M20.5669 106.46H63.8606C63.9078 106.46 63.9551 106.507 63.9551 106.555V107.405C63.9551 107.453 63.9078 107.5 63.8606 107.5H20.5669C20.5197 107.5 20.4724 107.453 20.4724 107.405V106.555C20.4724 106.507 20.5197 106.46 20.5669 106.46Z" fill="#313131"/>
<path fill-rule="evenodd" clip-rule="evenodd" d="M62.8209 22C62.0174 22 61.3084 22.3308 60.7413 22.8507C60.1741 23.4652 59.8433 24.1269 59.8433 25.0249C59.8433 25.8284 60.1741 26.4901 60.7413 27.0572C61.3084 27.6717 62.0174 27.908 62.8209 27.908C63.6244 27.908 64.3806 27.6717 64.9477 27.0572C65.5149 26.4901 65.7985 25.7811 65.7985 25.0249C65.7985 24.1741 65.5149 23.4652 64.9477 22.8507C64.3806 22.3308 63.6244 22 62.8209 22ZM61.1194 23.2761C61.592 22.8507 62.2064 22.5672 62.8209 22.5672C63.4826 22.5672 64.097 22.8507 64.5224 23.2761C64.995 23.796 65.2313 24.3159 65.2313 25.0249C65.2313 25.6866 64.995 26.301 64.5224 26.7264C64.0497 27.199 63.4353 27.4353 62.8209 27.4353C62.1592 27.4353 61.5448 27.199 61.1194 26.7264C60.6467 26.301 60.4104 25.6866 60.4577 25.0249C60.3632 24.3159 60.6467 23.7488 61.1194 23.2761Z" fill="#313131"/>
<path fill-rule="evenodd" clip-rule="evenodd" d="M61.5928 26.4897V23.7012H62.7744C63.058 23.7012 63.2943 23.7484 63.4361 23.7957C63.5779 23.843 63.6724 23.9375 63.7669 24.0793C63.8614 24.2211 63.9087 24.3629 63.9087 24.5047C63.9087 24.6937 63.8614 24.8828 63.7196 25.0246C63.5779 25.1663 63.4361 25.2609 63.1525 25.2609C63.2943 25.3081 63.3888 25.4027 63.4361 25.4972C63.5306 25.5917 63.6251 25.7335 63.7669 25.9698L64.0978 26.4897H63.4361L63.0107 25.8753C62.8689 25.639 62.7744 25.5445 62.7271 25.4499C62.6798 25.4027 62.6326 25.3554 62.538 25.3554C62.4908 25.3554 62.3963 25.3081 62.2545 25.3081H62.1599V26.4897H61.5928ZM62.1599 24.8828H62.5853C62.8689 24.8828 63.0107 24.8828 63.1052 24.8355C63.1525 24.7882 63.247 24.7882 63.247 24.741C63.2943 24.6937 63.2943 24.5992 63.2943 24.5519C63.2943 24.4574 63.247 24.3629 63.1997 24.3156C63.1525 24.2683 63.058 24.2211 63.0107 24.2211C62.9634 24.2211 62.8216 24.2211 62.5853 24.2211H62.1599V24.8828Z" fill="#313131"/>
<path fill-rule="evenodd" clip-rule="evenodd" d="M21.607 116.859L20 109.959H21.4179L22.4577 114.732L23.7338 109.959H25.3881L26.6169 114.78L27.6567 109.959H29.0746L27.4204 116.859H25.908L24.5373 111.707L23.1667 116.859H21.607ZM30.1145 116.859V109.959H35.2189V111.14H31.4851V112.653H34.9354V113.834H31.4851V115.725H35.3607V116.906H30.1145V116.859ZM41.3632 114.307L42.7339 114.732C42.5448 115.489 42.1667 116.056 41.6941 116.434C41.2214 116.812 40.607 117.001 39.8508 117.001C38.9528 117.001 38.1966 116.67 37.5821 116.056C36.9677 115.441 36.6841 114.591 36.6841 113.503C36.6841 112.369 36.9677 111.471 37.5821 110.809C38.1966 110.195 38.9528 109.864 39.9453 109.864C40.7961 109.864 41.4578 110.1 42.0249 110.62C42.3558 110.904 42.5921 111.329 42.7339 111.896L41.3632 112.227C41.2687 111.849 41.1269 111.566 40.8433 111.377C40.5597 111.188 40.2762 111.046 39.8981 111.046C39.3782 111.046 38.9528 111.235 38.6692 111.613C38.3384 111.991 38.1966 112.558 38.1966 113.409C38.1966 114.26 38.3384 114.921 38.6692 115.252C39 115.63 39.3782 115.819 39.8981 115.819C40.2762 115.819 40.607 115.725 40.8433 115.441C41.0324 115.205 41.2214 114.827 41.3632 114.307ZM43.9627 113.456C43.9627 112.747 44.0573 112.18 44.2936 111.66C44.4354 111.329 44.6717 110.998 44.9553 110.715C45.2389 110.431 45.5224 110.242 45.8533 110.1C46.2787 109.911 46.7986 109.817 47.3657 109.817C48.4055 109.817 49.209 110.148 49.8235 110.762C50.4379 111.377 50.7215 112.275 50.7215 113.409C50.7215 114.543 50.4379 115.394 49.8235 116.056C49.209 116.67 48.4055 117.001 47.3657 117.001C46.3259 117.001 45.5224 116.67 44.908 116.056C44.2463 115.394 43.9627 114.543 43.9627 113.456ZM45.3807 113.409C45.3807 114.212 45.5697 114.78 45.9478 115.205C46.3259 115.63 46.7513 115.819 47.3185 115.819C47.8856 115.819 48.311 115.63 48.6891 115.205C49.0672 114.78 49.209 114.212 49.209 113.409C49.209 112.605 49.02 112.038 48.6891 111.613C48.3583 111.235 47.8856 111.046 47.3185 111.046C46.7513 111.046 46.2787 111.235 45.9006 111.66C45.5697 111.991 45.3807 112.605 45.3807 113.409ZM52.0921 116.859V109.959H53.4628L56.2986 114.591V109.959H57.5747V116.859H56.1568L53.3682 112.322V116.859H52.0921ZM60.9777 116.859V111.093H58.9454V109.911H64.428V111.093H62.3956V116.859H60.9777Z" fill="#313131"/>
</svg>

<svg width="85" height="140" fill="none" xmlns="http://www.w3.org/2000/svg"><path fill="#F6F6F6" d="M0 0h85v140H0z"/><path fill-rule="evenodd" clip-rule="evenodd" d="M30.54 22.898l-.284 6.758c-1.465 1.135-2.977 2.222-4.442 3.356v7.279c1.512-.473 3.024-.473 4.537-.473.189 5.625.378 11.249.52 16.92.094.757.142 1.466.236 2.175-.52.52-.567.945-1.654 1.607-1.134.614-1.418.567-1.702 2.032.142 1.749.142 1.89 1.37 2.836.852.236 1.23.425 2.08.047.52 13.14.993 26.231 1.513 39.371.236-.047.425-.142.662-.189v-1.182c0-.378 0-.756-.048-1.087l-.992-37.15c.803-.52 1.465-1.039 2.221-1.653.662 2.504.851 4.773.898 7.42-.189.85-.378 1.749-.567 2.6-.378 2.457-.709 4.82-.756 7.278a21.656 21.656 0 00-.095 1.749h.71a71.71 71.71 0 01.661 5.577c-.709 3.403-.284 6.192.142 9.5l.52 4.348c.094.709-1.465 1.513-1.418 2.033 0 .567.945.898 1.418 1.039.567.048.52.19 1.748-.094 1.418-.331 1.418-.567 1.277-1.607-.095-.614-.284-.709-.331-1.56-.047-1.181.094-2.977.142-4.064.189-2.127.661-4.112.945-6.24.047-1.04.142-1.748-.095-2.74.095-.473.237-.899.331-1.371.19-.898.331-1.796.425-2.694.048-.426.048-.804.095-1.23.284 0 .567.048.85.048.048 1.229.143 2.221.426 3.403.142.615.284 1.276.425 1.89-.047.473-.047.946-.094 1.419-.047.52-.094.992-.094 1.512.047.615.189 1.182.283 1.749l.425 2.268c.331 1.655.568 5.814.473 6.617-.094.379-.33.662-.425 1.087a1.785 1.785 0 000 .709c.094.379.52.568 1.087.615 1.134.142.803.142 1.985.094.33 0 .803-.094 1.087-.378.189-.189.473-.661.33-.898-.377-.614-1.039-.945-1.559-1.37 0 0 0-.615.047-.709.095-.426.71-3.781.756-4.349.331-1.181.379-2.41.52-3.592.095-1.701 0-2.741-.472-4.253.094-2.127.142-4.16.378-6.192l1.04 3.923.709 1.418.709 1.323.141-1.276.095-1.418-1.512-8.035c.472.237.898.426 1.37.662 2.08-2.6 3.687-5.152 3.97-8.744a69.85 69.85 0 00-.378-11.343c-.047-.614-.094-1.182-.142-1.796l-2.977.52c-.426-1.324-.898-2.269-2.647-3.214-1.134-.615-2.174-.945-3.497-1.324-.048.615.472-2.788.472-4.253-.283-1.182-.709-2.269-1.276-3.403-1.512-.142-2.978-.237-4.537 0-.426 1.181-.898 2.221-1.276 3.497.141 1.513.472 2.883.661 4.349-.85.33-1.843.472-2.647.898-1.276.567-2.126 1.37-3.213 2.316-.237-5.814-.52-11.58-.757-17.394 2.08.378 4.065.851 6.145 1.418 1.985.662 3.97 1.371 5.908 2.175 3.166.898 5.813 1.465 9.027 1.323 4.16-.615.945-.615 2.316-3.498 1.134-.803 2.458-1.181 3.781-2.268-2.032-.898-3.025-1.276-1.56-3.781.52-.946 1.04-1.891 1.56-2.789-1.087.567-2.174 1.182-3.261 1.749-1.135.52-1.796.803-2.978.85-2.363.19-2.127-.047-1.89 2.647-2.41-.047-4.254-.614-6.57-1.323-2.316-.898-4.68-1.749-6.995-2.647-1.938-.567-3.64-.992-5.672-.992-.142-2.742-.047-5.578-.425-8.272-.047-.52-.095-1.04-.19-1.56zm-9.973 83.562H63.86c.047 0 .094.047.094.095v.85a.102.102 0 01-.094.095H20.567a.102.102 0 01-.095-.095v-.85c0-.048.048-.095.095-.095zM62.82 22c-.803 0-1.512.33-2.079.85-.567.615-.898 1.277-.898 2.175 0 .803.331 1.465.898 2.032.567.615 1.276.851 2.08.851.803 0 1.56-.236 2.127-.85.567-.568.85-1.277.85-2.033 0-.85-.283-1.56-.85-2.174A3.172 3.172 0 0062.82 22zm-1.7 1.276c.472-.425 1.086-.709 1.7-.709.663 0 1.277.284 1.702.71.473.519.71 1.039.71 1.748 0 .662-.237 1.276-.71 1.701a2.399 2.399 0 01-1.701.71c-.662 0-1.276-.237-1.702-.71-.472-.425-.709-1.04-.661-1.701-.095-.71.189-1.276.661-1.749z" fill="#313131"/><path fill-rule="evenodd" clip-rule="evenodd" d="M61.593 26.49V23.7h1.181c.284 0 .52.047.662.095.142.047.236.142.33.283a.763.763 0 01.143.426c0 .189-.048.378-.19.52a.708.708 0 01-.566.236.484.484 0 01.283.236c.095.095.19.236.33.473l.332.52h-.662l-.425-.615c-.142-.236-.237-.33-.284-.425-.047-.047-.094-.095-.189-.095-.047 0-.142-.047-.283-.047h-.095v1.182h-.567zm.567-1.607h.425c.284 0 .426 0 .52-.047.048-.048.142-.048.142-.095.047-.047.047-.142.047-.19a.361.361 0 00-.094-.235.358.358 0 00-.19-.095h-.85v.662zm-40.553 91.976l-1.607-6.9h1.418l1.04 4.773 1.276-4.773h1.654l1.229 4.821 1.04-4.821h1.418l-1.655 6.9h-1.512l-1.37-5.152-1.371 5.152h-1.56zm8.508 0v-6.9h5.104v1.181h-3.734v1.513h3.45v1.181h-3.45v1.891h3.876v1.181h-5.246v-.047zm11.248-2.552l1.37.425c-.188.757-.566 1.324-1.039 1.702-.473.378-1.087.567-1.843.567a3.106 3.106 0 01-2.269-.945c-.614-.615-.898-1.465-.898-2.553 0-1.134.284-2.032.898-2.694.615-.614 1.37-.945 2.363-.945.851 0 1.513.236 2.08.756.33.284.567.709.709 1.276l-1.37.331c-.095-.378-.237-.661-.52-.85-.284-.189-.568-.331-.946-.331-.52 0-.945.189-1.229.567-.33.378-.472.945-.472 1.796 0 .851.141 1.512.472 1.843.331.378.71.567 1.23.567.377 0 .708-.094.944-.378.19-.236.378-.614.52-1.134zm2.6-.851c0-.709.094-1.276.33-1.796.142-.331.379-.662.662-.945a2.77 2.77 0 01.898-.615c.426-.189.946-.283 1.513-.283 1.04 0 1.843.331 2.458.945.614.615.898 1.513.898 2.647s-.284 1.985-.898 2.647c-.615.614-1.418.945-2.458.945-1.04 0-1.844-.331-2.458-.945-.662-.662-.945-1.513-.945-2.6zm1.418-.047c0 .803.189 1.371.567 1.796.378.425.803.614 1.37.614.568 0 .993-.189 1.371-.614s.52-.993.52-1.796c0-.804-.189-1.371-.52-1.796-.33-.378-.803-.567-1.37-.567-.568 0-1.04.189-1.418.614-.331.331-.52.945-.52 1.749zm6.711 3.45v-6.9h1.37l2.837 4.632v-4.632h1.276v6.9h-1.418l-2.789-4.537v4.537h-1.276zm8.886 0v-5.766h-2.033v-1.182h5.483v1.182h-2.032v5.766h-1.418z" fill="#313131"/></svg>
